X: 110
T: Diao shi de yanzhao At the table with a carved shape of eight lions
L: 1/8
M: 2/4
K: C
^A G=A2 [I:setbarnb 1]| 
A c A G | 
E E E A | 
E CA,2 | 
A, A, A, C/ D/ | 
E E E E | 
E E A3/ c/ | 
E CA,2 | 
^A G=A2 | 
A c A G | 
EA2c | 
A4 |]

@@@ Tune index: 8778
